X:1
T:Kitten On A Black Dog's Tail
M:6/8
L:1/8
Q:175
C:(c) Greg Anderson, April 1997
R:Jig
N:For Monty, our old black lab, and his late buddy, Emily the cat, who
N:used to love to ride his thumping tail when she was a kitten
K:A
A,|C z A, B, z A,|A,CE AzE|ABc def|e3- e2 e|fed edc|
d2 c B2 A|GAB G2 F|1E3-E2 :|2E3- E2 E
|:F3 FGA|G2 F E2 A,|C2 A, CDE|D2 C B,2 C|
A,B,C B,CD|CDE FED|B,CD E2 G|1A3 ABA:|2A3- A2 E||
